X:216
T:Cameronian Rant, The TS.216
M:C
L:1/8
Q:1/2=90
S:Thomas Sands’ MS,1810,Lincolnshire
R:reel
O:England;Lincolnshire
Z:vmp.Ruairidh Greig, 2011
K:F
(c/B/)|AF F/F/F AFcF|AF F/F/Fc2BA|BG G/G/G BGdG|BG G/G/Gd2:|
|:A/G/|Fffg fdcA|Fffg fdcA|Ggga gecA|Ggga gecA|
Fffg fdcA|Fffg fdcA|egdf egdf|e/f/g def2 cBH|]

